out/images/aboutCard2.svg

<svg fill="none" height="90" viewBox="0 0 105 90" width="105" xmlns="http://www.w3.org/2000/svg"><g fill="#fff" stroke="#fff" stroke-width="1.74474"><path d="m50.1449 53.9492c-5.3589 0-9.8916 0-9.8916 0l3.3705 11.0744-6.6991 18.02c-.8674 2.3336.4391 4.8871 2.9182 5.7037 2.4798.8165 5.1925-.414 6.0598-2.7468l7.1982-19.3632c.3248-.874.3538-1.8211.0829-2.7112z"/><path d="m62.7313 53.9495c-2.956 0-6.9278 0-10.7102 0l5.5159 10.1787-.715 20.2464c-.0872 2.4708 1.9703 4.5404 4.5951 4.6226.0539.0017.1074.0026.1609.0026 2.5534 0 4.665-1.9076 4.7503-4.3277l.7557-21.4006c.0268-.7572-.1509-1.5078-.5166-2.1827z"/><path d="m58.7846 16.3004c4.4889 0 8.1278-3.4251 8.1278-7.65019 0-4.2251-3.6389-7.65021-8.1278-7.65021-4.4888 0-8.1277 3.42511-8.1277 7.65021 0 4.22509 3.6389 7.65019 8.1277 7.65019z"/><path d="m23.2183 50.5263h31.0341l-6.7961-3.1003c-.6203-.2829-1.1884-.6374-1.6981-1.0487h-22.5399c-9.1319 0-16.56152 6.9929-16.56152 15.5884v22.8847c-1.81102 0-1.66478 0-3.45288 0-1.21708 0-2.2039.9288-2.2039 2.0744 0 1.1455.98682 2.0744 2.2039 2.0744h11.3138c1.2171 0 2.2039-.9289 2.2039-2.0744 0-1.1456-.9868-2.0744-2.2039-2.0744-1.8045 0-1.6646 0-3.4529 0v-22.8843c.0002-6.308 5.4521-11.4398 12.1535-11.4398z"/><path d="m67.1292 43.9359-12.5325-5.7172-2.0639-14.2813 5.077 11.6129 3.9936 1.822 1.9446-12.0363c.4039-2.4994-1.4215-4.8334-4.0767-5.2136l-10.9206-1.5631c-2.6552-.3802-5.1352 1.3379-5.5391 3.8371l-3.3215 20.5585h3.6778c-.3262-.987-.35-1.6199-.3064-2.0482l1.5684-15.4233 2.2791 15.77c.182 1.2576 1.0201 2.3459 2.2334 2.8995 8.9308 4.0741 3.7824 1.7253 14.4748 6.6033 1.8274.8339 4.0808.2561 5.1783-1.4179 1.2614-1.9253.4675-4.4285-1.6663-5.4024z"/><path d="m101.796 84.8511c-1.9684 0-1.619 0-3.553 0v-22.8847c0-8.5955-7.4293-15.5883-16.5615-15.5883h-8.4885c.1941 1.3724-.0157 2.8095-.6905 4.149h9.179c6.7016 0 12.1537 5.1318 12.1537 11.4396v22.8846c-2.1017 0-2.5687 0-2.6552 0-.0123 0-.0175 0-.0179 0-.0479 0-.208 0-.6798 0-1.2171 0-2.2039.9288-2.2039 2.0744s.9868 2.0744 2.2039 2.0744h11.3137c1.217 0 2.204-.9288 2.204-2.0744 0-1.1458-.987-2.0746-2.204-2.0746z"/></g></svg>

<svg width="105" height="90" viewBox="0 0 105 90" fill="none" xmlns="http://www.w3.org/2000/svg">
<path d="M50.1449 53.9492C44.786 53.9492 40.2533 53.9492 40.2533 53.9492L43.6238 65.0236L36.9247 83.0436C36.0573 85.3772 37.3638 87.9307 39.8429 88.7473C42.3227 89.5638 45.0354 88.3333 45.9027 86.0005L53.1009 66.6373C53.4257 65.7633 53.4547 64.8162 53.1838 63.9261L50.1449 53.9492Z" fill="white" stroke="white" stroke-width="1.74474"/>
<path d="M62.7313 53.9495C59.7753 53.9495 55.8035 53.9495 52.0211 53.9495L57.537 64.1282L56.822 84.3746C56.7348 86.8454 58.7923 88.915 61.4171 88.9972C61.471 88.9989 61.5245 88.9998 61.578 88.9998C64.1314 88.9998 66.243 87.0922 66.3283 84.6721L67.084 63.2715C67.1108 62.5143 66.9331 61.7637 66.5674 61.0888L62.7313 53.9495Z" fill="white" stroke="white" stroke-width="1.74474"/>
<path d="M58.7846 16.3004C63.2735 16.3004 66.9124 12.8753 66.9124 8.65021C66.9124 4.42511 63.2735 1 58.7846 1C54.2958 1 50.6569 4.42511 50.6569 8.65021C50.6569 12.8753 54.2958 16.3004 58.7846 16.3004Z" fill="white" stroke="white" stroke-width="1.74474"/>
<path d="M23.2183 50.5263H54.2524L47.4563 47.426C46.836 47.1431 46.2679 46.7886 45.7582 46.3773H23.2183C14.0864 46.3773 6.65678 53.3702 6.65678 61.9657V84.8504C4.84576 84.8504 4.992 84.8504 3.2039 84.8504C1.98682 84.8504 1 85.7792 1 86.9248C1 88.0703 1.98682 88.9992 3.2039 88.9992H14.5177C15.7348 88.9992 16.7216 88.0703 16.7216 86.9248C16.7216 85.7792 15.7348 84.8504 14.5177 84.8504C12.7132 84.8504 12.8531 84.8504 11.0648 84.8504V61.9661C11.065 55.6581 16.5169 50.5263 23.2183 50.5263Z" fill="white" stroke="white" stroke-width="1.74474"/>
<path d="M67.1292 43.9359L54.5967 38.2187L52.5328 23.9374L57.6098 35.5503L61.6034 37.3723L63.548 25.336C63.9519 22.8366 62.1265 20.5026 59.4713 20.1224L48.5507 18.5593C45.8955 18.1791 43.4155 19.8972 43.0116 22.3964L39.6901 42.9549H43.3679C43.0417 41.9679 43.0179 41.335 43.0615 40.9067L44.6299 25.4834L46.909 41.2534C47.091 42.511 47.9291 43.5993 49.1424 44.1529C58.0732 48.227 52.9248 45.8782 63.6172 50.7562C65.4446 51.5901 67.698 51.0123 68.7955 49.3383C70.0569 47.413 69.263 44.9098 67.1292 43.9359Z" fill="white" stroke="white" stroke-width="1.74474"/>
<path d="M101.796 84.8511C99.8276 84.8511 100.177 84.8511 98.243 84.8511V61.9664C98.243 53.3709 90.8137 46.3781 81.6815 46.3781H73.193C73.3871 47.7505 73.1773 49.1876 72.5025 50.5271H81.6815C88.3831 50.5271 93.8352 55.6589 93.8352 61.9667V84.8513C91.7335 84.8513 91.2665 84.8513 91.18 84.8513C91.1677 84.8513 91.1625 84.8513 91.1621 84.8513C91.1142 84.8513 90.9541 84.8513 90.4823 84.8513C89.2652 84.8513 88.2784 85.7801 88.2784 86.9257C88.2784 88.0713 89.2652 89.0001 90.4823 89.0001H101.796C103.013 89.0001 104 88.0713 104 86.9257C104 85.7799 103.013 84.8511 101.796 84.8511Z" fill="white" stroke="white" stroke-width="1.74474"/>
</svg>
